X:0975
T:A Do.
M:6/8
L:1/8
Q:3/8=128
I: :: ::
Z:Jack Campin * www.campin.me.uk * 2009
K:A Mixolydian
d|cec BdB|AAA A2B|GGg geg|BGB G2B|cec BdB|AAA A2a|edc BdB|AAA A2:|
e|efg aec|caa aec|efg gdB|Bgf gBB|efg aba|gfe ega|geg d2B|AAA A2:|
<end>
<start>
